web-ui/public/img/shd.svg

<svg width="40" height="40" viewBox="0 0 40 40" fill="none" xmlns="http://www.w3.org/2000/svg">
<g clip-path="url(#clip0_1_36492)">
<path d="M13.71 0.939906C21.488 0.551581 26.679 4.1167 31.5491 12.2999C37.5418 22.3695 34.4227 32.5448 28.0053 38.5565C32.063 30.0515 31.213 26.6266 22.2614 19.3154C13.3097 12.0042 12.7108 5.87276 13.71 0.939906Z" fill="url(#paint0_linear_1_36492)"/>
<path fill-rule="evenodd" clip-rule="evenodd" d="M40.0001 20.141C40.0001 28.3589 35.0683 35.4273 27.9975 38.5592C32.5286 34.3718 38.0114 23.4704 31.7669 13.1845C26.2452 4.08918 18.0848 1.80077 13.707 0.940001C15.6348 0.329418 17.6881 0 19.8184 0C30.9645 0 40.0001 9.01743 40.0001 20.141Z" fill="url(#paint1_linear_1_36492)"/>
<path d="M26.29 39.0561C20.9747 39.983 14.5784 36.6388 8.45088 27.696C1.82666 18.0285 5.57729 7.4512 11.9947 1.43945C7.93697 9.94441 8.78701 13.3694 17.7386 20.6807C26.6904 27.9918 27.2892 34.1233 26.29 39.0561Z" fill="url(#paint2_linear_1_36492)"/>
<path fill-rule="evenodd" clip-rule="evenodd" d="M0 19.855C0 11.6371 4.93168 4.56871 12.0025 1.43671C7.47155 5.62417 1.98864 16.5255 8.23317 26.8114C13.7549 35.9068 21.9152 38.1952 26.293 39.056C24.3653 39.6666 22.312 39.996 20.1816 39.996C9.03563 39.996 0 30.9786 0 19.855Z" fill="url(#paint3_linear_1_36492)"/>
</g>
<defs>
<linearGradient id="paint0_linear_1_36492" x1="13.7235" y1="0.939907" x2="28.2026" y2="38.5697" gradientUnits="userSpaceOnUse">
<stop stop-color="#3A447C"/>
<stop offset="0.523958" stop-color="#252945"/>
<stop offset="1" stop-color="#121114"/>
</linearGradient>
<linearGradient id="paint1_linear_1_36492" x1="13.7101" y1="1.0339" x2="28.3645" y2="38.5833" gradientUnits="userSpaceOnUse">
<stop stop-color="#7387F6"/>
<stop offset="0.473958" stop-color="#4B548D"/>
<stop offset="1" stop-color="#1F1D23"/>
</linearGradient>
<linearGradient id="paint2_linear_1_36492" x1="26.2765" y1="39.0561" x2="11.7974" y2="1.42629" gradientUnits="userSpaceOnUse">
<stop stop-color="#53347A"/>
<stop offset="0.523958" stop-color="#37244D"/>
<stop offset="1" stop-color="#16141B"/>
</linearGradient>
<linearGradient id="paint3_linear_1_36492" x1="26.2899" y1="38.9621" x2="11.6356" y2="1.41268" gradientUnits="userSpaceOnUse">
<stop stop-color="#A868F5"/>
<stop offset="0.473958" stop-color="#684692"/>
<stop offset="1" stop-color="#25222A"/>
</linearGradient>
<clipPath id="clip0_1_36492">
<rect width="40" height="40" fill="white"/>
</clipPath>
</defs>
</svg>

<svg xmlns="http://www.w3.org/2000/svg" width="40" height="40" fill="none"><g clip-path="url(#a)"><path fill="url(#b)" d="M13.71.94C21.488.552 26.679 4.117 31.55 12.3c5.992 10.07 2.873 20.245-3.545 26.256 4.058-8.504 3.208-11.93-5.744-19.24C13.31 12.003 12.711 5.872 13.71.94Z"/><path fill="url(#c)" fill-rule="evenodd" d="M40 20.141c0 8.218-4.932 15.286-12.003 18.418 4.532-4.187 10.014-15.089 3.77-25.374C26.245 4.088 18.085 1.8 13.707.94 15.635.33 17.688 0 19.818 0 30.964 0 40 9.017 40 20.141Z" clip-rule="evenodd"/><path fill="url(#d)" d="M26.29 39.056c-5.315.927-11.712-2.417-17.84-11.36-6.623-9.668-2.873-20.245 3.545-26.257-4.058 8.505-3.208 11.93 5.744 19.242 8.951 7.31 9.55 13.442 8.551 18.375Z"/><path fill="url(#e)" fill-rule="evenodd" d="M0 19.855C0 11.637 4.932 4.569 12.002 1.437 7.472 5.624 1.99 16.526 8.233 26.81c5.522 9.096 13.682 11.384 18.06 12.245-1.928.61-3.981.94-6.111.94C9.036 39.996 0 30.979 0 19.855Z" clip-rule="evenodd"/></g><defs><linearGradient id="b" x1="13.723" x2="28.203" y1=".94" y2="38.57" gradientUnits="userSpaceOnUse"><stop stop-color="#3A447C"/><stop offset=".524" stop-color="#252945"/><stop offset="1" stop-color="#121114"/></linearGradient><linearGradient id="c" x1="13.71" x2="28.364" y1="1.034" y2="38.583" gradientUnits="userSpaceOnUse"><stop stop-color="#7387F6"/><stop offset=".474" stop-color="#4B548D"/><stop offset="1" stop-color="#1F1D23"/></linearGradient><linearGradient id="d" x1="26.276" x2="11.797" y1="39.056" y2="1.426" gradientUnits="userSpaceOnUse"><stop stop-color="#53347A"/><stop offset=".524" stop-color="#37244D"/><stop offset="1" stop-color="#16141B"/></linearGradient><linearGradient id="e" x1="26.29" x2="11.636" y1="38.962" y2="1.413" gradientUnits="userSpaceOnUse"><stop stop-color="#A868F5"/><stop offset=".474" stop-color="#684692"/><stop offset="1" stop-color="#25222A"/></linearGradient><clipPath id="a"><path fill="#fff" d="M0 0h40v40H0z"/></clipPath></defs></svg>
